X:1
T:Regina coeli - Bernabei
T:James Gibb editions
T:#
%%score [ 1 2 3 4 ]
L:1/8
Q:1/4=112
M:4/4
K:C
V:1 treble nm="Soprano" snm="S"
V:2 treble nm="Alto" snm="A"
V:3 treble-8 nm="Tenor" snm="T"
V:4 bass nm="Bass" snm="B"
V:1
"^Regina coeli""^Giuseppe Antonio Bernabei\n(1649-1732)""^allegro" z8 | z2!f! c2 A2 F2 | %2
w: |Re- gi- na|
 c4"^," A2 A2 | (cdec d4) |"^," G2 G2 (ABcd | ed/c/ Bc dc/B/ AB |[M:4/4] c2"^," e2 A2 A2 | %7
w: coe- li, lae-|ta\- * * * *|re, lae- ta\- * * *||* re, al- le-|
!>(! G8!>)! |"^," G2!f! G4 c2- | c2 B2 A2 A2 | !>!B4 A2 A2 | e4"^," A2 B2- | B2 (c4 d2- | %13
w: lu-|ja; qui- a|* quem me- ru-|i- sti por-|ta- re, por\-|* ta\- *|
 d2"^," B2 c4 | A2 c4 B2) |"^," c4 F4 | G4 A2 d2 | e3 d c2) A2 | B2"^," B2 E2 ^F2 | G2 G2 c2 A2 | %20
w: * re, al-|le- lu\- *|ja, re-|sur- re- xit|si\- * * cut|di- xit, re- sur-|re- xit si- cut|
 G4"^," G2 G2 | G2 (!>!c4 B2) |"^," c2 c4 A2- | A2 B4"^," c2 | c2 A2 G4 | %25
w: di- xit, si-|cut di\- *|xit, al- le\-|* lu- ja,|al- le- lu-|
"^," G2!p!"^più lento"[Q:1/4=100] c4 B2 | %26
w: ja. O- ra,|
[Q:1/4=100][Q:1/4=100][Q:1/4=100][Q:1/4=100] c4"^," A2 B2- | B2 c4 d2- | d2 (c4 B2) | %29
w: o- ra pro|* no- bis|* De\- *|
"^," c2!f!"^allegro"[Q:1/4=116] G2 B2 d2 |"^," e8 | d4 c4- | %32
w: um, al- le- lu-|ja,|al- le\-|
[Q:1/4=116][Q:1/4=116][Q:1/4=116][Q:1/4=116] c2"^," B2 c2 A2 | B2 (c4 B2) |"^," c2 G4 A2 | %35
w: * lu- ja, al-|le- lu\- *|ja, al- le-|
 G4"^," G2"^lento"[Q:1/4=80] G2- | G2 A2 !>!G4 | !fermata!G8 |] %38
w: lu- ja, al\-|* le- lu-|ja.|
V:2
 z4 z2!f! F2 | E2 C2 F4 |"^," E2 E2 (CB,CD | EFGE F4) |"^," E2 E2 (FGAF | G4)"^," F2 F2- | %6
w: Re-|gi- na coe-|li, lae- ta\- * * *||re, lae- ta\- * * *|* re, al-|
[M:4/4] F2 E2 F2 F2 | D2!>(! E2 D4!>)! | E4!f! G4 | G2 G2 E2 ^F2 | G2 E2 =F4 | (!>!G4 F4) | %12
w: * le- lu- ja,|al- le- lu-|ja; qui-|a quem me- ru-|i- sti por-|ta\- *|
"^," E2 G2 !>!F4 | D2 G4 G2 | F2 C2 F4 | (E4 D4- | D2) (C4 B,2) |"^," C2 C4 D2- | D2 E4 C2 | %19
w: re, por- ta-|re, al- le-|lu- ja, al-|le\- *|* lu\- *|ja, re- sur-|* re- xit|
 D2 E2 (F4- | F2 E2 D4) |"^," E2 E2 D2 (F2- | F2 E2)"^," F2 C2 | D2 F2 E2 G2 | (FGFE) D4 | %25
w: si- cut di\-||xit, si- cut di\-|* * xit, al-|le- lu- ja, al-|le\- * * * lu-|
"^," E2!p! E4 D2 | E6 D2- |"^," D2 C2 C2 A,2 | (EFGE F4- | F2) E2 z2!f! G2 | E2 C2 G4- | G4 z2 C2 | %32
w: ja. O- ra,|o- ra|* pro no- bis|De\- * * * *|* um, al-|le- lu- ja,|* al-|
 (E2 G2) A4- | A2"^," G2 F4- | F2 E2 D4- | D4"^," C4 | (DE) (FE) D4 | !fermata!E8 |] %38
w: le\- * lu\-|* ja, al\-|* le- lu\-|* ja,|al\- * le\- * lu-|ja.|
V:3
 z2!f! c2 A2 F2 | c4"^," F2 F2 | G6"^," F2 | G2 !>!c4 B2 | c2 c2 A4 |"^," B2 G2 A2 d2 | %6
w: Re- gi- na|coe- li, lae-|ta- re,|lae- ta- re,|al- le- lu-|ja, al- le- lu-|
[M:4/4][K:treble-8]"^," G2 c4 d2 | (B2!>(! c4 B2)!>)! |"^," c4!f! e4 | d2 d2 c2 c2 | %10
w: ja, al- le-|lu\- * *|ja; qui-|a quem me- ru-|
 d2 G2 c2 (!>!d2- | d2 ^c2)"^," d4 | G4 !>!A4 |"^," B2 d2 (efed | cB AB/c/ d4) |"^," G2 c2 A2 d2 | %16
w: i- sti por- ta\-|* * re,|por- ta-|re, por- ta\- * * *||re, al- le- lu-|
"^," G4 F4 | G4 A4- | A2"^," G2 c4 | B4 (A4 | B2 c4) B2 | c4 F4 | G4"^," A4 | (F4 G2) G2 | %24
w: ja, re-|sur- re-|* xit, re-|sur- re\-|* * xit|si- cut|di- xit,|al\- * le-|
 (AB c4 B2) | c4 z4 |!p! c4 F4 | G4 A4 | G4 d4 |"^," G4!f! G2 B2 | c4"^," G2 c2 | B2 G2"^," c2 A2 | %32
w: lu\- * * *|ja.|O- ra|pro no-|bis De-|um, al- le-|lu- ja, al-|le- lu- ja, al-|
 c2 e2 A4 | z2 e2 A2 d2 |"^," G2 c2 B2 (c2- | c2 B2)"^," c2 G2 | B2 (c4 B2) | !fermata!c8 |] %38
w: le- lu- ja,|al- le- lu-|ja, al- le- lu\-|* * ja, al-|le- lu\- *|ja.|
V:4
!f! C,4 D,4 | C,4 D,4 |"^," E,4 F,4 | (E,4 D,4) |"^," C,4 F,4 | E,4 D,4 |[M:4/4] C,4 F,4- | %7
w: Re- gi-|na coe-|li, lae-|ta\- *|re, al-|le- lu-|ja, al\-|
 F,2 (E,!>(!F,) G,4!>)! |"^," C,4!f! C,4 | G,4 A,4 | G,4 F,4 | E,4"^," D,4 | (E,4 F,4) | %13
w: * le\- * lu-|ja; qui-|a quem|me- ru-|i- sti|por\- *|
 G,4"^," C,4 | F,4 (D,4 | C,4 D,4 | E,4) D,4 |"^," C,4 F,4 | G,4 (A,4 | G,4 F,4) | G,4 G,4 | %21
w: ta- re,|al- le\-||* lu-|ja, re-|sur- re\-||xit si-|
 C,4 D,4 |"^," C,4 F,4 | (D,4 E,4 | F,4) G,4 |"^," C,4!p! G,4 | C,4 D,4 | E,4 F,4 | (E,4 D,4) | %29
w: cut di-|xit, al-|le\- *|* lu-|ja. O-|ra pro|no- bis|De\- *|
 C,4 z4 |!f! C,4 E,4 | G,4 A,4- |"^," A,2 G,2 (F,4 | E,4) D,4 |"^," C,4 G,2 F,2 | G,4"^," C,4 | %36
w: um,|al- le-|lu- ja,|* al- le\-|* lu-|ja, al- le-|lu- ja,|
 G,2 F,2 G,4 | !fermata!C,8 |] %38
w: al- le- lu-|ja.|

